assets/post/images/dual5.svg

<svg xmlns="http://www.w3.org/2000/svg" width="1298" height="1031" overflow="hidden"><defs><clipPath id="a"><path d="M3007 600h1298v1031H3007z"/></clipPath></defs><g clip-path="url(#a)" transform="translate(-3007 -600)"><path d="M3007.5 1553.92h1209.26v9.16H3007.5Zm1204.67-18.34 45.83 22.92-45.83 22.92Z"/><path d="M3659.083 1630.61V687.747h-9.166v942.863Zm18.334-938.28-22.917-45.833-22.916 45.833Z"/><path fill-rule="evenodd" d="M4197.8 1478.55c1.73 0 3.1.58 4.1 1.75 1 1.16 1.5 2.72 1.5 4.7q0 3.195-1.26 7.98l-1.78 7.01c-.46 1.79-.79 3.18-1 4.18-.2 1-.35 1.86-.44 2.59-.1.73-.14 1.34-.14 1.82 0 1.87.31 3.21.93 4.04.62.82 1.63 1.23 3.04 1.23 1.13 0 2.35-.45 3.66-1.36 1.32-.9 2.71-2.27 4.18-4.09s2.65-3.59 3.55-5.31c.89-1.71 1.62-3.83 2.18-6.34l3.85-17.55h7.02l-5.92 25.7c-.6 2.59-.89 4.59-.89 5.99 0 1.08.17 1.87.52 2.35.35.49.91.73 1.66.73.82 0 1.68-.33 2.6-.99s2.21-1.92 3.89-3.79l2.31 2.27c-2.46 2.62-4.55 4.47-6.28 5.55s-3.57 1.62-5.51 1.62c-1.68 0-3.02-.55-4.02-1.66q-1.5-1.665-1.5-4.41c0-1.46.33-3.06.98-4.79l-.49-.16c-2.67 3.76-5.21 6.53-7.6 8.31q-3.585 2.67-7.35 2.67c-2.52 0-4.45-.72-5.8-2.16-1.35-1.45-2.03-3.46-2.03-6.02 0-1.7.4-4.12 1.18-7.26l2.63-10.62c.73-2.94 1.1-5.02 1.1-6.24 0-1.08-.18-1.86-.53-2.35-.35-.48-.9-.73-1.66-.73-.84 0-1.72.35-2.65 1.04-.94.69-2.21 1.94-3.83 3.75l-2.31-2.27c2.29-2.33 4.02-3.92 5.18-4.79 1.16-.86 2.28-1.48 3.35-1.84 1.06-.36 2.26-.55 3.58-.55"/><text x="4185.69" y="1513.62" fill-opacity="0" font-family="Arial,Arial_MSFontService,sans-serif" font-size="40.081">𝑢</text><path fill-rule="evenodd" d="M3707.15 694.033h5.59l-2.23 10.01h12.32l-.89 4.093h-12.32l-3.61 15.725c-.7 3.053-1.15 5.248-1.34 6.585-.19 1.338-.28 2.412-.28 3.222q0 5.026 4.17 5.026c1.19 0 2.46-.453 3.79-1.358q2.01-1.358 4.77-4.64l2.35 2.431c-2.35 2.837-4.62 4.931-6.79 6.282-2.18 1.351-4.45 2.026-6.83 2.026-5.65 0-8.47-2.85-8.47-8.551q0-2.715.69-5.714l4.78-21.034h-6.81l.61-2.796q2.385-.04 3.63-.365c.82-.216 1.51-.513 2.06-.892.56-.378 1.06-.918 1.52-1.621.46-.702.91-1.6 1.34-2.695q.645-1.641 1.95-5.734"/><text x="3696.04" y="737.26" fill-opacity="0" font-family="Arial,Arial_MSFontService,sans-serif" font-size="49.403">𝑡</text><path fill="none" stroke="#d74514" stroke-miterlimit="8" stroke-width="9.167" d="m3060.5 1396.5 1090.6 6.73"/><path fill-rule="evenodd" d="M3719.7 1455.88c-1.37 0-2.73.47-4.07 1.4s-2.8 2.43-4.4 4.48c-1.59 2.05-2.83 4.08-3.72 6.08-.9 2-1.6 4.29-2.11 6.89l-.33 1.7c-.27 1.43-.43 2.53-.5 3.28-.07.76-.1 1.5-.1 2.23 0 2.11.45 3.64 1.35 4.6q1.365 1.44 4.68 1.44 2.07 0 3.81-.81c1.17-.54 2.27-1.32 3.31-2.35s1.98-2.27 2.81-3.73c.84-1.46 1.59-3.15 2.25-5.09.67-1.93 1.17-3.91 1.5-5.95.34-2.04.51-3.95.51-5.74 0-2.83-.4-4.95-1.2-6.34-.79-1.39-2.06-2.09-3.79-2.09m-17.06-4.78c1.68 0 3.01.55 3.99 1.66.99 1.11 1.48 2.58 1.48 4.42 0 1.51-.31 3.11-.93 4.78l.49.16q7.5-10.98 14.91-10.98 4.425 0 6.87 3.36c1.64 2.25 2.45 5.41 2.45 9.49 0 4.46-.9 8.84-2.69 13.15-1.8 4.31-4.29 7.73-7.48 10.25-3.19 2.53-6.75 3.79-10.7 3.79-3.59 0-6.58-.78-8.95-2.35l-1.87 8.88c-.4 1.92-.61 3.5-.61 4.74 0 1.19.31 2.03.91 2.53.61.5 1.79.83 3.55.99l-.32 1.99h-12.53l9.77-43c.57-2.48.85-4.52.85-6.12 0-1.08-.17-1.86-.52-2.35-.36-.49-.91-.73-1.67-.73-.83 0-1.72.35-2.65 1.03-.93.69-2.21 1.94-3.83 3.75l-2.31-2.27q3.645-3.81 6.18-5.49t5.61-1.68"/><text x="3690.85" y="1500.85" fill-opacity="0" font-family="Arial,Arial_MSFontService,sans-serif" font-size="56.86">𝑝</text><path fill-rule="evenodd" d="M3750.3 1431.65h3.93l-.86 9.32 7.65-5.39 1.94 3.33-8.49 3.97 8.49 3.99-1.94 3.3-7.65-5.39.86 9.32h-3.93l.89-9.32-7.68 5.39-1.97-3.3 8.52-3.99-8.52-3.97 1.97-3.33 7.68 5.39Z"/><text x="3741.54" y="1451.3" fill-opacity="0" font-family="Arial,Arial_MSFontService,sans-serif" font-size="22.458">∗</text><path fill-rule="evenodd" d="M3799.11 1472.54h49.93v5.39h-49.93Zm0-16.82h49.93v5.39h-49.93Z"/><text x="3799.11" y="1475.15" fill-opacity="0" font-family="Arial,Arial_MSFontService,sans-serif" font-size="22.209">=</text><path fill-rule="evenodd" d="M3908.87 1454.3c-2.76 0-5.23 1.12-7.42 3.35-2.19 2.22-3.91 5.23-5.17 9.01-1.25 3.79-1.88 7.55-1.88 11.31 0 2.81.4 4.91 1.21 6.3s2.08 2.09 3.81 2.09c1.38 0 2.75-.47 4.12-1.42 1.36-.94 2.82-2.44 4.37-4.5 1.56-2.05 2.77-4.01 3.63-5.87.86-1.87 1.6-4.19 2.21-6.97.61-2.79.91-5.21.91-7.26 0-2.11-.44-3.64-1.34-4.6-.89-.96-2.37-1.44-4.45-1.44m-.65-3.2c1.7 0 3.31.2 4.82.61 1.51.4 3.04 1.09 4.58 2.07l3.73-2.68 2.59.65-4.17 18.88c-.3 1.33-.98 4.67-2.03 10.02-1.11 5.67-2.01 9.68-2.69 12.03-.69 2.35-1.55 4.49-2.58 6.43a17.7 17.7 0 0 1-3.97 5.04c-1.62 1.43-3.59 2.54-5.9 3.32-2.31.79-5.04 1.18-8.2 1.18-10.22 0-15.32-2.97-15.32-8.92 0-1.51.46-2.89 1.38-4.13.91-1.24 2.39-2.55 4.41-3.93l2.92 2.35c-.51.62-.94 1.24-1.3 1.84q-.525.915-.75 1.77c-.14.56-.22 1.24-.22 2.02q0 3.045 2.19 4.44c1.46.93 3.66 1.4 6.61 1.4 3.32 0 5.99-.75 8-2.25s3.74-3.91 5.17-7.24c1.43-3.32 2.82-8.34 4.17-15.07l-.57-.12q-3.93 5.385-7.29 7.86c-2.24 1.65-4.66 2.47-7.25 2.47-2.95 0-5.24-1.11-6.87-3.32-1.64-2.22-2.46-5.38-2.46-9.49 0-4.62.91-9.05 2.72-13.31 1.81-4.25 4.32-7.64 7.54-10.15 3.21-2.51 6.79-3.77 10.74-3.77"/><text x="3879.08" y="1501.46" fill-opacity="0" font-family="Arial,Arial_MSFontService,sans-serif" font-size="57.549">𝑔</text><path fill-rule="evenodd" d="M4040.98 1428.42q11.835 3.12 18.18 13.47c4.23 6.91 6.34 15.24 6.34 24.99 0 9.78-2.11 18.11-6.32 24.99-4.22 6.87-10.28 11.35-18.2 13.43l-.97-3.12c6.24-2.08 10.88-6.19 13.92-12.32s4.56-13.93 4.56-23.39c0-9.13-1.51-16.71-4.54-22.75s-7.71-10.1-14.06-12.18Zm-79.47 0 1.1 3.12c-6.32 2.08-11.01 6.14-14.05 12.18-3.03 6.04-4.55 13.62-4.55 22.75 0 9.46 1.52 17.26 4.55 23.39 3.04 6.13 7.68 10.24 13.93 12.32l-.98 3.12c-7.91-2.08-13.98-6.56-18.19-13.43q-6.33-10.32-6.33-24.99c0-9.75 2.12-18.08 6.35-24.99 4.23-6.9 10.28-11.39 18.17-13.47m26.78 4.12c2.08 0 3.68.49 4.79 1.46 1.1.97 1.89 2.5 2.35 4.6q.69 3.135.69 9.18c0 1.32-.03 3.24-.09 5.75l-.16 6.41c-.21 6.07-.32 10.86-.32 14.34 0 2.81.06 5.01.18 6.59s.32 2.77.59 3.58c.27.82.61 1.36 1.01 1.65q.615.42 1.5.42c.7 0 1.45-.23 2.25-.71.8-.47 1.78-1.33 2.94-2.57l2.27 2.27c-1.76 1.78-3.49 3.17-5.21 4.17q-2.58 1.5-4.56 1.5c-1.54 0-2.71-.31-3.52-.93-.82-.62-1.4-1.65-1.77-3.08-.36-1.43-.54-3.54-.54-6.32 0-3.84.28-10.12.85-18.85h-.41q-12.15 17.835-18.36 28.53h-8.23l.41-1.98c1.24-1.52 2.49-3.09 3.73-4.72 1.24-1.64 2.75-3.71 4.54-6.22l18.15-25.78q-.03-4.14-.36-6.93c-.22-1.86-.51-3.34-.89-4.44-.38-1.09-.88-1.9-1.5-2.41s-1.47-.77-2.56-.77c-.89 0-1.79.26-2.71.77s-2.26 1.57-4.01 3.16l-2.11-2.35c2.49-2.46 4.55-4.13 6.18-5 1.63-.88 3.26-1.32 4.88-1.32"/><text x="3964.54" y="1483.85" fill-opacity="0" font-family="Arial,Arial_MSFontService,sans-serif" font-size="58.643">𝜆</text><path fill-rule="evenodd" d="M4018.49 1431.65h3.93l-.86 9.32 7.65-5.39 1.94 3.33-8.49 3.97 8.49 3.99-1.94 3.3-7.65-5.39.86 9.32h-3.93l.9-9.32-7.69 5.39-1.96-3.3 8.51-3.99-8.51-3.97 1.96-3.33 7.69 5.39Z"/><text x="4009.74" y="1451.3" fill-opacity="0" font-family="Arial,Arial_MSFontService,sans-serif" font-size="22.458">∗</text><path fill="#f8ccb9" fill-rule="evenodd" d="M3164.94 973.107c21.68 66.393 81.02 196.693 115.13 259.883 34.11 63.2 47.62 93.02 89.55 119.29 41.93 26.28 88.47 63.55 162.03 38.35 73.55-25.21 195.79-116.45 279.29-189.59 83.51-73.14 190.82-184.26 221.73-249.235 30.92-64.971 3.56-114.321-36.24-140.593-39.8-26.273-149.6-54.675-202.54-17.042-52.95 37.634-76.4 182.488-115.13 242.84-38.73 60.36-73.56 116.81-117.26 119.29-43.71 2.49-90.26-58.93-144.98-104.37-54.72-45.45-138.94-132.078-183.35-168.291-44.42-36.214-71.78-63.906-83.15-48.995s-6.75 72.072 14.92 138.463"/><path fill="#d74514" fill-rule="evenodd" d="M3604.34 1020.29c5.73 0 10.86.77 15.4 2.31l-2.47 11.59h-5.31c0-2.35-.25-4.18-.75-5.5-.5-1.31-1.26-2.24-2.29-2.81-1.02-.57-2.4-.85-4.13-.85-3.6 0-6.82 1.65-9.69 4.96-2.86 3.31-5.29 8.17-7.29 14.59s-3 12.19-3 17.33c0 6.83 2.25 10.25 6.77 10.25 2.16 0 3.94-.68 5.35-2.05 1.4-1.36 2.43-3.47 3.08-6.34l.56-2.55c.22-1 .35-1.83.41-2.49.05-.67.08-1.27.08-1.81 0-1.11-.26-1.94-.77-2.49s-1.39-.91-2.63-1.07l.56-2.68H3618l-.57 2.68c-1.05.35-1.83.77-2.35 1.27q-.765.75-1.38 2.19c-.4.96-.85 2.56-1.33 4.8l-3.12 13.99-5.6 1.29-2.14-2.88q-5.31 2.88-11.07 2.88c-5.67 0-10.03-1.59-13.07-4.78s-4.56-7.8-4.56-13.82c0-3.73.64-7.99 1.91-12.79 1.27-4.79 3.23-9.12 5.89-12.97s6.01-6.85 10.03-9.01c4.03-2.16 8.6-3.24 13.7-3.24"/><text x="3572.81" y="1069.82" fill-opacity="0" font-family="Arial,Arial_MSFontService,sans-serif" font-size="56.617">𝑮</text></g></svg>

<svg width="1298" height="1031" xmlns="http://www.w3.org/2000/svg" xmlns:xlink="http://www.w3.org/1999/xlink" overflow="hidden"><defs><clipPath id="clip0"><rect x="3007" y="600" width="1298" height="1031"/></clipPath></defs><g clip-path="url(#clip0)" transform="translate(-3007 -600)"><path d="M3007.5 1553.92 4216.76 1553.92 4216.76 1563.08 3007.5 1563.08ZM4212.17 1535.58 4258 1558.5 4212.17 1581.42Z"/><path d="M4.58333-1.68079e-06 4.58368 942.863-4.58299 942.863-4.58333 1.68079e-06ZM22.917 938.28 0.000360892 984.113-22.9163 938.28Z" transform="matrix(1 0 0 -1 3654.5 1630.61)"/><path d="M4197.8 1478.55C4199.53 1478.55 4200.9 1479.13 4201.9 1480.3 4202.9 1481.46 4203.4 1483.02 4203.4 1485 4203.4 1487.13 4202.98 1489.79 4202.14 1492.98L4200.36 1499.99C4199.9 1501.78 4199.57 1503.17 4199.36 1504.17 4199.16 1505.17 4199.01 1506.03 4198.92 1506.76 4198.82 1507.49 4198.78 1508.1 4198.78 1508.58 4198.78 1510.45 4199.09 1511.79 4199.71 1512.62 4200.33 1513.44 4201.34 1513.85 4202.75 1513.85 4203.88 1513.85 4205.1 1513.4 4206.41 1512.49 4207.73 1511.59 4209.12 1510.22 4210.59 1508.4 4212.06 1506.58 4213.24 1504.81 4214.14 1503.09 4215.03 1501.38 4215.76 1499.26 4216.32 1496.75L4220.17 1479.2 4227.19 1479.2 4221.27 1504.9C4220.67 1507.49 4220.38 1509.49 4220.38 1510.89 4220.38 1511.97 4220.55 1512.76 4220.9 1513.24 4221.25 1513.73 4221.81 1513.97 4222.56 1513.97 4223.38 1513.97 4224.24 1513.64 4225.16 1512.98 4226.08 1512.32 4227.37 1511.06 4229.05 1509.19L4231.36 1511.46C4228.9 1514.08 4226.81 1515.93 4225.08 1517.01 4223.35 1518.09 4221.51 1518.63 4219.57 1518.63 4217.89 1518.63 4216.55 1518.08 4215.55 1516.97 4214.55 1515.86 4214.05 1514.39 4214.05 1512.56 4214.05 1511.1 4214.38 1509.5 4215.03 1507.77L4214.54 1507.61C4211.87 1511.37 4209.33 1514.14 4206.94 1515.92 4204.55 1517.7 4202.1 1518.59 4199.59 1518.59 4197.07 1518.59 4195.14 1517.87 4193.79 1516.43 4192.44 1514.98 4191.76 1512.97 4191.76 1510.41 4191.76 1508.71 4192.16 1506.29 4192.94 1503.15L4195.57 1492.53C4196.3 1489.59 4196.67 1487.51 4196.67 1486.29 4196.67 1485.21 4196.49 1484.43 4196.14 1483.94 4195.79 1483.46 4195.24 1483.21 4194.48 1483.21 4193.64 1483.21 4192.76 1483.56 4191.83 1484.25 4190.89 1484.94 4189.62 1486.19 4188 1488L4185.69 1485.73C4187.98 1483.4 4189.71 1481.81 4190.87 1480.94 4192.03 1480.08 4193.15 1479.46 4194.22 1479.1 4195.28 1478.74 4196.48 1478.55 4197.8 1478.55Z" fill-rule="evenodd"/><text fill="#000000" fill-opacity="0" font-family="Arial,Arial_MSFontService,sans-serif" font-size="40.0815" x="4185.69" y="1513.62">𝑢</text><path d="M3707.15 694.033 3712.74 694.033 3710.51 704.043 3722.83 704.043 3721.94 708.136 3709.62 708.136 3706.01 723.861C3705.31 726.914 3704.86 729.109 3704.67 730.446 3704.48 731.784 3704.39 732.858 3704.39 733.668 3704.39 737.019 3705.78 738.694 3708.56 738.694 3709.75 738.694 3711.02 738.241 3712.35 737.336 3713.69 736.431 3715.28 734.884 3717.12 732.696L3719.47 735.127C3717.12 737.964 3714.85 740.058 3712.68 741.409 3710.5 742.76 3708.23 743.435 3705.85 743.435 3700.2 743.435 3697.38 740.585 3697.38 734.884 3697.38 733.074 3697.61 731.169 3698.07 729.17L3702.85 708.136 3696.04 708.136 3696.65 705.34C3698.24 705.313 3699.45 705.191 3700.28 704.975 3701.1 704.759 3701.79 704.462 3702.34 704.083 3702.9 703.705 3703.4 703.165 3703.86 702.462 3704.32 701.76 3704.77 700.862 3705.2 699.767 3705.63 698.673 3706.28 696.761 3707.15 694.033Z" fill-rule="evenodd"/><text fill="#000000" fill-opacity="0" font-family="Arial,Arial_MSFontService,sans-serif" font-size="49.4028" x="3696.04" y="737.26">𝑡</text><path d="M3060.5 1396.5 4151.1 1403.23" stroke="#D74514" stroke-width="9.16667" stroke-miterlimit="8" fill="none" fill-rule="evenodd"/><path d="M3719.7 1455.88C3718.33 1455.88 3716.97 1456.35 3715.63 1457.28 3714.29 1458.21 3712.83 1459.71 3711.23 1461.76 3709.64 1463.81 3708.4 1465.84 3707.51 1467.84 3706.61 1469.84 3705.91 1472.13 3705.4 1474.73L3705.07 1476.43C3704.8 1477.86 3704.64 1478.96 3704.57 1479.71 3704.5 1480.47 3704.47 1481.21 3704.47 1481.94 3704.47 1484.05 3704.92 1485.58 3705.82 1486.54 3706.73 1487.5 3708.29 1487.98 3710.5 1487.98 3711.88 1487.98 3713.15 1487.71 3714.31 1487.17 3715.48 1486.63 3716.58 1485.85 3717.62 1484.82 3718.66 1483.79 3719.6 1482.55 3720.43 1481.09 3721.27 1479.63 3722.02 1477.94 3722.68 1476 3723.35 1474.07 3723.85 1472.09 3724.18 1470.05 3724.52 1468.01 3724.69 1466.1 3724.69 1464.31 3724.69 1461.48 3724.29 1459.36 3723.49 1457.97 3722.7 1456.58 3721.43 1455.88 3719.7 1455.88ZM3702.64 1451.1C3704.32 1451.1 3705.65 1451.65 3706.63 1452.76 3707.62 1453.87 3708.11 1455.34 3708.11 1457.18 3708.11 1458.69 3707.8 1460.29 3707.18 1461.96L3707.67 1462.12C3712.67 1454.8 3717.64 1451.14 3722.58 1451.14 3725.53 1451.14 3727.82 1452.26 3729.45 1454.5 3731.09 1456.75 3731.9 1459.91 3731.9 1463.99 3731.9 1468.45 3731 1472.83 3729.21 1477.14 3727.41 1481.45 3724.92 1484.87 3721.73 1487.39 3718.54 1489.92 3714.98 1491.18 3711.03 1491.18 3707.44 1491.18 3704.45 1490.4 3702.08 1488.83L3700.21 1497.71C3699.81 1499.63 3699.6 1501.21 3699.6 1502.45 3699.6 1503.64 3699.91 1504.48 3700.51 1504.98 3701.12 1505.48 3702.3 1505.81 3704.06 1505.97L3703.74 1507.96 3691.21 1507.96 3700.98 1464.96C3701.55 1462.48 3701.83 1460.44 3701.83 1458.84 3701.83 1457.76 3701.66 1456.98 3701.31 1456.49 3700.95 1456 3700.4 1455.76 3699.64 1455.76 3698.81 1455.76 3697.92 1456.11 3696.99 1456.79 3696.06 1457.48 3694.78 1458.73 3693.16 1460.54L3690.85 1458.27C3693.28 1455.73 3695.34 1453.9 3697.03 1452.78 3698.72 1451.66 3700.59 1451.1 3702.64 1451.1Z" fill-rule="evenodd"/><text fill="#000000" fill-opacity="0" font-family="Arial,Arial_MSFontService,sans-serif" font-size="56.8599" x="3690.85" y="1500.85">𝑝</text><path d="M3750.3 1431.65 3754.23 1431.65 3753.37 1440.97 3761.02 1435.58 3762.96 1438.91 3754.47 1442.88 3762.96 1446.87 3761.02 1450.17 3753.37 1444.78 3754.23 1454.1 3750.3 1454.1 3751.19 1444.78 3743.51 1450.17 3741.54 1446.87 3750.06 1442.88 3741.54 1438.91 3743.51 1435.58 3751.19 1440.97Z" fill-rule="evenodd"/><text fill="#000000" fill-opacity="0" font-family="Arial,Arial_MSFontService,sans-serif" font-size="22.458" x="3741.54" y="1451.3">∗</text><path d="M3799.11 1472.54 3849.04 1472.54 3849.04 1477.93 3799.11 1477.93ZM3799.11 1455.72 3849.04 1455.72 3849.04 1461.11 3799.11 1461.11Z" fill-rule="evenodd"/><text fill="#000000" fill-opacity="0" font-family="Arial,Arial_MSFontService,sans-serif" font-size="22.209" x="3799.11" y="1475.15">=</text><path d="M3908.87 1454.3C3906.11 1454.3 3903.64 1455.42 3901.45 1457.65 3899.26 1459.87 3897.54 1462.88 3896.28 1466.66 3895.03 1470.45 3894.4 1474.21 3894.4 1477.97 3894.4 1480.78 3894.8 1482.88 3895.61 1484.27 3896.42 1485.66 3897.69 1486.36 3899.42 1486.36 3900.8 1486.36 3902.17 1485.89 3903.54 1484.94 3904.9 1484 3906.36 1482.5 3907.91 1480.44 3909.47 1478.39 3910.68 1476.43 3911.54 1474.57 3912.4 1472.7 3913.14 1470.38 3913.75 1467.6 3914.36 1464.81 3914.66 1462.39 3914.66 1460.34 3914.66 1458.23 3914.22 1456.7 3913.32 1455.74 3912.43 1454.78 3910.95 1454.3 3908.87 1454.3ZM3908.22 1451.1C3909.92 1451.1 3911.53 1451.3 3913.04 1451.71 3914.55 1452.11 3916.08 1452.8 3917.62 1453.78L3921.35 1451.1 3923.94 1451.75 3919.77 1470.63C3919.47 1471.96 3918.79 1475.3 3917.74 1480.65 3916.63 1486.32 3915.73 1490.33 3915.05 1492.68 3914.36 1495.03 3913.5 1497.17 3912.47 1499.11 3911.45 1501.04 3910.12 1502.72 3908.5 1504.15 3906.88 1505.58 3904.91 1506.69 3902.6 1507.47 3900.29 1508.26 3897.56 1508.65 3894.4 1508.65 3884.18 1508.65 3879.08 1505.68 3879.08 1499.73 3879.08 1498.22 3879.54 1496.84 3880.46 1495.6 3881.37 1494.36 3882.85 1493.05 3884.87 1491.67L3887.79 1494.02C3887.28 1494.64 3886.85 1495.26 3886.49 1495.86 3886.14 1496.47 3885.89 1497.06 3885.74 1497.63 3885.6 1498.19 3885.52 1498.87 3885.52 1499.65 3885.52 1501.68 3886.25 1503.16 3887.71 1504.09 3889.17 1505.02 3891.37 1505.49 3894.32 1505.49 3897.64 1505.49 3900.31 1504.74 3902.32 1503.24 3904.33 1501.74 3906.06 1499.33 3907.49 1496 3908.92 1492.68 3910.31 1487.66 3911.66 1480.93L3911.09 1480.81C3908.47 1484.4 3906.04 1487.02 3903.8 1488.67 3901.56 1490.32 3899.14 1491.14 3896.55 1491.14 3893.6 1491.14 3891.31 1490.03 3889.68 1487.82 3888.04 1485.6 3887.22 1482.44 3887.22 1478.33 3887.22 1473.71 3888.13 1469.28 3889.94 1465.02 3891.75 1460.77 3894.26 1457.38 3897.48 1454.87 3900.69 1452.36 3904.27 1451.1 3908.22 1451.1Z" fill-rule="evenodd"/><text fill="#000000" fill-opacity="0" font-family="Arial,Arial_MSFontService,sans-serif" font-size="57.5488" x="3879.08" y="1501.46">𝑔</text><path d="M4040.98 1428.42C4048.87 1430.5 4054.93 1434.99 4059.16 1441.89 4063.39 1448.8 4065.5 1457.13 4065.5 1466.88 4065.5 1476.66 4063.39 1484.99 4059.18 1491.87 4054.96 1498.74 4048.9 1503.22 4040.98 1505.3L4040.01 1502.18C4046.25 1500.1 4050.89 1495.99 4053.93 1489.86 4056.97 1483.73 4058.49 1475.93 4058.49 1466.47 4058.49 1457.34 4056.98 1449.76 4053.95 1443.72 4050.92 1437.68 4046.24 1433.62 4039.89 1431.54ZM3961.51 1428.42 3962.61 1431.54C3956.29 1433.62 3951.6 1437.68 3948.56 1443.72 3945.53 1449.76 3944.01 1457.34 3944.01 1466.47 3944.01 1475.93 3945.53 1483.73 3948.56 1489.86 3951.6 1495.99 3956.24 1500.1 3962.49 1502.18L3961.51 1505.3C3953.6 1503.22 3947.53 1498.74 3943.32 1491.87 3939.1 1484.99 3936.99 1476.66 3936.99 1466.88 3936.99 1457.13 3939.11 1448.8 3943.34 1441.89 3947.57 1434.99 3953.62 1430.5 3961.51 1428.42Z" fill-rule="evenodd"/><path d="M3988.29 1432.54C3990.37 1432.54 3991.97 1433.03 3993.08 1434 3994.18 1434.97 3994.97 1436.5 3995.43 1438.6 3995.89 1440.69 3996.12 1443.75 3996.12 1447.78 3996.12 1449.1 3996.09 1451.02 3996.03 1453.53L3995.87 1459.94C3995.66 1466.01 3995.55 1470.8 3995.55 1474.28 3995.55 1477.09 3995.61 1479.29 3995.73 1480.87 3995.85 1482.45 3996.05 1483.64 3996.32 1484.45 3996.59 1485.27 3996.93 1485.81 3997.33 1486.1 3997.74 1486.38 3998.24 1486.52 3998.83 1486.52 3999.53 1486.52 4000.28 1486.29 4001.08 1485.81 4001.88 1485.34 4002.86 1484.48 4004.02 1483.24L4006.29 1485.51C4004.53 1487.29 4002.8 1488.68 4001.08 1489.68 3999.36 1490.68 3997.84 1491.18 3996.52 1491.18 3994.98 1491.18 3993.81 1490.87 3993 1490.25 3992.18 1489.63 3991.6 1488.6 3991.23 1487.17 3990.87 1485.74 3990.69 1483.63 3990.69 1480.85 3990.69 1477.01 3990.97 1470.73 3991.54 1462L3991.13 1462C3983.03 1473.89 3976.91 1483.4 3972.77 1490.53L3964.54 1490.53 3964.95 1488.55C3966.19 1487.03 3967.44 1485.46 3968.68 1483.83 3969.92 1482.19 3971.43 1480.12 3973.22 1477.61L3991.37 1451.83C3991.35 1449.07 3991.23 1446.76 3991.01 1444.9 3990.79 1443.04 3990.5 1441.56 3990.12 1440.46 3989.74 1439.37 3989.24 1438.56 3988.62 1438.05 3988 1437.54 3987.15 1437.28 3986.06 1437.28 3985.17 1437.28 3984.27 1437.54 3983.35 1438.05 3982.43 1438.56 3981.09 1439.62 3979.34 1441.21L3977.23 1438.86C3979.72 1436.4 3981.78 1434.73 3983.41 1433.86 3985.04 1432.98 3986.67 1432.54 3988.29 1432.54Z" fill-rule="evenodd"/><text fill="#000000" fill-opacity="0" font-family="Arial,Arial_MSFontService,sans-serif" font-size="58.6431" x="3964.54" y="1483.85">𝜆</text><path d="M4018.49 1431.65 4022.42 1431.65 4021.56 1440.97 4029.21 1435.58 4031.15 1438.91 4022.66 1442.88 4031.15 1446.87 4029.21 1450.17 4021.56 1444.78 4022.42 1454.1 4018.49 1454.1 4019.39 1444.78 4011.7 1450.17 4009.74 1446.87 4018.25 1442.88 4009.74 1438.91 4011.7 1435.58 4019.39 1440.97Z" fill-rule="evenodd"/><text fill="#000000" fill-opacity="0" font-family="Arial,Arial_MSFontService,sans-serif" font-size="22.458" x="4009.74" y="1451.3">∗</text><path d="M3164.94 973.107C3186.62 1039.5 3245.96 1169.8 3280.07 1232.99 3314.18 1296.19 3327.69 1326.01 3369.62 1352.28 3411.55 1378.56 3458.09 1415.83 3531.65 1390.63 3605.2 1365.42 3727.44 1274.18 3810.94 1201.04 3894.45 1127.9 4001.76 1016.78 4032.67 951.805 4063.59 886.834 4036.23 837.484 3996.43 811.212 3956.63 784.939 3846.83 756.537 3793.89 794.17 3740.94 831.804 3717.49 976.658 3678.76 1037.01 3640.03 1097.37 3605.2 1153.82 3561.5 1156.3 3517.79 1158.79 3471.24 1097.37 3416.52 1051.93 3361.8 1006.48 3277.58 919.852 3233.17 883.639 3188.75 847.425 3161.39 819.733 3150.02 834.644 3138.65 849.556 3143.27 906.716 3164.94 973.107Z" fill="#F8CCB9" fill-rule="evenodd"/><path d="M3604.34 1020.29C3610.07 1020.29 3615.2 1021.06 3619.74 1022.6L3617.27 1034.19 3611.96 1034.19C3611.96 1031.84 3611.71 1030.01 3611.21 1028.69 3610.71 1027.38 3609.95 1026.45 3608.92 1025.88 3607.9 1025.31 3606.52 1025.03 3604.79 1025.03 3601.19 1025.03 3597.97 1026.68 3595.1 1029.99 3592.24 1033.3 3589.81 1038.16 3587.81 1044.58 3585.81 1051 3584.81 1056.77 3584.81 1061.91 3584.81 1068.74 3587.06 1072.16 3591.58 1072.16 3593.74 1072.16 3595.52 1071.48 3596.93 1070.11 3598.33 1068.75 3599.36 1066.64 3600.01 1063.77L3600.57 1061.22C3600.79 1060.22 3600.92 1059.39 3600.98 1058.73 3601.03 1058.06 3601.06 1057.46 3601.06 1056.92 3601.06 1055.81 3600.8 1054.98 3600.29 1054.43 3599.78 1053.88 3598.9 1053.52 3597.66 1053.36L3598.22 1050.68 3618 1050.68 3617.43 1053.36C3616.38 1053.71 3615.6 1054.13 3615.08 1054.63 3614.57 1055.13 3614.11 1055.86 3613.7 1056.82 3613.3 1057.78 3612.85 1059.38 3612.37 1061.62L3609.25 1075.61 3603.65 1076.9 3601.51 1074.02C3597.97 1075.94 3594.28 1076.9 3590.44 1076.9 3584.77 1076.9 3580.41 1075.31 3577.37 1072.12 3574.33 1068.93 3572.81 1064.32 3572.81 1058.3 3572.81 1054.57 3573.45 1050.31 3574.72 1045.51 3575.99 1040.72 3577.95 1036.39 3580.61 1032.54 3583.27 1028.69 3586.62 1025.69 3590.64 1023.53 3594.67 1021.37 3599.24 1020.29 3604.34 1020.29Z" fill="#D74514" fill-rule="evenodd"/><text fill="#000000" fill-opacity="0" font-family="Arial,Arial_MSFontService,sans-serif" font-size="56.6167" x="3572.81" y="1069.82">𝑮</text></g></svg>
